assets/img/icon-qr.svg

<svg width="40" height="40" viewBox="0 0 40 40" xmlns="http://www.w3.org/2000/svg" fill="#D15C22">
    <path d="M9 6C7.3516 6 6 7.3516 6 9v4c0 1.6484 1.3516 3 3 3h1v2h2v-2h1c1.6484 0 3-1.3516 3-3V9c0-1.6484-1.3516-3-3-3H9zm3 12v2h2v-2h-2zm0 2h-2v2h2v-2zm-2 0v-2H8v2h2zM27 6c-1.6484 0-3 1.3516-3 3v4c0 1.6484 1.3516 3 3 3h1v2h2v-2h1c1.6484 0 3-1.3516 3-3V9c0-1.6484-1.3516-3-3-3h-4zm3 12v2h2v-2h-2zm0 2h-2v2h2v-2zm0 2v2h2v-2h-2zm0 2h-2v2h2v-2zm-2 0v-2h-2v2h2zM9 8h4c.5625 0 1 .4375 1 1v4c0 .5625-.4375 1-1 1H9c-.5625 0-1-.4375-1-1V9c0-.5625.4375-1 1-1zm11 0v2h-2v2h2v2h2V8h-2zm7 0h4c.5625 0 1 .4375 1 1v4c0 .5625-.4375 1-1 1h-4c-.5625 0-1-.4375-1-1V9c0-.5625.4375-1 1-1zm-17 2v2h2v-2h-2zm18 0v2h2v-2h-2zm-12 6v2h6v2h2v-4h-8zm2 4v2h-2v2h8v-2h-4v-2h-2zm-9 4c-1.6484 0-3 1.3516-3 3v4c0 1.6484 1.3516 3 3 3h4c1.6484 0 3-1.3516 3-3v-4c0-1.6484-1.3516-3-3-3H9zm0 2h4c.5625 0 1 .4375 1 1v4c0 .5625-.4375 1-1 1H9c-.5625 0-1-.4375-1-1v-4c0-.5625.4375-1 1-1zm9 0v6h2v-6h-2zm-8 2v2h2v-2h-2zm14 0v2h2v-2h-2zm2 2v2h2v-2h-2zm2 0h2v-2h-2v2zm2 0v2h2v-2h-2z"/>
</svg>

<?xml version="1.0" encoding="UTF-8"?>
<svg width="40px" height="40px" viewBox="0 0 40 40" version="1.1" xmlns="http://www.w3.org/2000/svg" xmlns:xlink="http://www.w3.org/1999/xlink">
    <!-- Generator: Sketch 54.1 (76490) - https://sketchapp.com -->
    <title>icon-qr</title>
    <desc>Created with Sketch.</desc>
    <g id="icon-qr" stroke="none" stroke-width="1" fill="none" fill-rule="evenodd">
        <rect id="Rectangle-3" x="0" y="0" width="40" height="40"></rect>
        <path d="M9,6 C7.351562,6 6,7.351562 6,9 L6,13 C6,14.648438 7.351562,16 9,16 L10,16 L10,18 L12,18 L12,16 L13,16 C14.648438,16 16,14.648438 16,13 L16,9 C16,7.351562 14.648438,6 13,6 L9,6 Z M12,18 L12,20 L14,20 L14,18 L12,18 Z M12,20 L10,20 L10,22 L12,22 L12,20 Z M10,20 L10,18 L8,18 L8,20 L10,20 Z M27,6 C25.351562,6 24,7.351562 24,9 L24,13 C24,14.648438 25.351562,16 27,16 L28,16 L28,18 L30,18 L30,16 L31,16 C32.648438,16 34,14.648438 34,13 L34,9 C34,7.351562 32.648438,6 31,6 L27,6 Z M30,18 L30,20 L32,20 L32,18 L30,18 Z M30,20 L28,20 L28,22 L30,22 L30,20 Z M30,22 L30,24 L32,24 L32,22 L30,22 Z M30,24 L28,24 L28,26 L30,26 L30,24 Z M28,24 L28,22 L26,22 L26,24 L28,24 Z M9,8 L13,8 C13.5625,8 14,8.4375 14,9 L14,13 C14,13.5625 13.5625,14 13,14 L9,14 C8.4375,14 8,13.5625 8,13 L8,9 C8,8.4375 8.4375,8 9,8 Z M20,8 L20,10 L18,10 L18,12 L20,12 L20,14 L22,14 L22,8 L20,8 Z M27,8 L31,8 C31.5625,8 32,8.4375 32,9 L32,13 C32,13.5625 31.5625,14 31,14 L27,14 C26.4375,14 26,13.5625 26,13 L26,9 C26,8.4375 26.4375,8 27,8 Z M10,10 L10,12 L12,12 L12,10 L10,10 Z M28,10 L28,12 L30,12 L30,10 L28,10 Z M16,16 L16,18 L22,18 L22,20 L24,20 L24,16 L16,16 Z M18,20 L18,22 L16,22 L16,24 L24,24 L24,22 L20,22 L20,20 L18,20 Z M9,24 C7.351562,24 6,25.351562 6,27 L6,31 C6,32.648438 7.351562,34 9,34 L13,34 C14.648438,34 16,32.648438 16,31 L16,27 C16,25.351562 14.648438,24 13,24 L9,24 Z M9,26 L13,26 C13.5625,26 14,26.4375 14,27 L14,31 C14,31.5625 13.5625,32 13,32 L9,32 C8.4375,32 8,31.5625 8,31 L8,27 C8,26.4375 8.4375,26 9,26 Z M18,26 L18,32 L20,32 L20,26 L18,26 Z M10,28 L10,30 L12,30 L12,28 L10,28 Z M24,28 L24,30 L26,30 L26,28 L24,28 Z M26,30 L26,32 L28,32 L28,30 L26,30 Z M28,30 L30,30 L30,28 L28,28 L28,30 Z M30,30 L30,32 L32,32 L32,30 L30,30 Z" id="Shape" fill="#D15C22" fill-rule="nonzero"></path>
    </g>
</svg>
